!!!!SEGMENT: pl-sa--251-a-vii-11--001_golabek-jakub-parthia-in-c-adagio.krn
!!!id: 17xx:1761
!!!COM: Gołąbek, Jakub
!!!OTL: Parthia in C – Adagio
!!!PDT:
!!!SMS-siglum: PL-SA
!!!SMS-shelfmark: 251/A VII 11
!!!SMS-variant:
!!!SMS-altvar:
!!!NIFC-rismID: 1001077273
!!!system-decoration: [(s1,s2)][(s3,s4)]s5
**kern	**dynam	**kern	**dynam	**kern	**dynam	**kern	**kern	**dynam
*part5	*part5	*part4	*part4	*part3	*part3	*part2	*part1	*part1
*staff5	*	*staff4	*	*staff3	*	*staff2	*staff1	*
*I"Fagotto	*	*I"Cornu Secundo in C	*	*I"Cornu Primo in C	*	*I"[Clarinetto Secundo]	*I"Clarineto Primo	*
*I'fag	*	*I'cor 2	*	*I'cor 1	*	*I'[cl 2]	*I'cl 1	*
*clefF4	*	*clefG2	*	*clefG2	*	*clefG2	*clefG2	*
*	*	*Trd0c0	*	*Trd0c0	*	*	*	*
*k[]	*	*k[]	*	*k[]	*	*k[]	*k[]	*
*M3/4	*	*M3/4	*	*M3/4	*	*M3/4	*M3/4	*
*>[A,B,B,C,C]	*	*>[A,B,B,C,C]	*	*>[A,B,B,C,C]	*	*>[A,B,B,C,C]	*>[A,B,B,C,C]	*
=1	=1	=1	=1	=1	=1	=1	=1	=1
*>A	*	*>A	*	*>A	*	*>A	*>A	*
*2\right	*	*2\right	*	*2\right	*	*	*2\right	*
!	!	!LO:TX:a:t=P:w źrodle na pierwszej stronie głosu Cornu Secundo in C dopiski innym atramentem:problem	!	!	!	!LO:TX:t=P:problem:partia na okładce; brak partii w rękopisie	!	!
!LO:TX:a:Bi:t=Adagio:rj	!	!LO:TX:a:Bi:t=Adagio:rj	!	!LO:TX:a:Bi:t=Adagio:rj	!	!	!LO:TX:a:Bi:t=Adagio:problem:'Adagio' znajduje się przed kluczem i oznaczeniem metrum	!
!	!	!	!	!	!	!	!LO:TX:a:Bi:t=dolce	!
!LO:TX:a:t=P:w źródle położenie 'p' po wyrazie 'Adagio' nad nutą 8E/:problem	!	!	!	!	!	!	!	!
!	!LO:DY:a	!	!LO:DY:a:t=%s.	!	!LO:DY:a:t=%s	!	!	!
4C/	p	4e/	p	4cc\	p	2.ryy	4.cc\	.
8C/L	.	4e/	.	4g/	.	.	.	.
8E/J	.	.	.	.	.	.	8dd\	.
8C/L	.	4r	.	4r	.	.	16ff\LL	.
.	.	.	.	.	.	.	16ee\	.
8E/J	.	.	.	.	.	.	16dd\	.
.	.	.	.	.	.	.	16cc\JJ	.
=2	=2	=2	=2	=2	=2	=2	=2	=2
4GG/	.	4G/	.	4g/	.	2.ryy	(>8cc\L	.
.	.	.	.	.	.	.	8b\J)	.
4BB/	.	4G/	.	4g/	.	.	4ff\	.
4r	.	4r	.	4r	.	.	8r	.
.	.	.	.	.	.	.	8ff\	.
=3	=3	=3	=3	=3	=3	=3	=3	=3
8C\L	.	4r	.	4r	.	2.ryy	(>16ee\LL	.
.	.	.	.	.	.	.	16gg\)	.
8F\J	.	.	.	.	.	.	(>16ff\	.
.	.	.	.	.	.	.	16dd\JJ)	.
4G\	.	4e/	.	4cc\	.	.	4cc\	.
4GG/	.	4g/	.	4dd\	.	.	4b\	.
=4	=4	=4	=4	=4	=4	=4	=4	=4
!	!LO:DY:a:t=%s:rj	!	!	!	!	!	!	!LO:DY:a
2C/	f	4c/	.	4cc\	.	2.ryy	8cc\L	f
.	.	.	.	.	.	.	8b-X\J	.
.	.	4c/	.	4cc\	.	.	4b-\	.
4r	.	4r	.	4r	.	.	8r	.
.	.	.	.	.	.	.	16r	.
!	!	!	!	!	!	!	!	!LO:DY:a:rj
.	.	.	.	.	.	.	16aa\	p
=5	=5	=5	=5	=5	=5	=5	=5	=5
!	!LO:DY:a:t=%s:rj	!	!	!	!	!	!	!
8C\L	p	4r	.	4r	.	2.ryy	16gg\LL	.
.	.	.	.	.	.	.	16ggM>\	.
8F\J	.	.	.	.	.	.	(>16aa\	.
.	.	.	.	.	.	.	16ff\JJ)	.
4G\	.	4e/	.	4cc\	.	.	4ee\	.
4GG/	.	4g/	.	4g/	.	.	4dd\	.
=6	=6	=6	=6	=6	=6	=6	=6	=6
4GG/	.	4g/	.	4g/	.	2.ryy	(>4dd#X\	.
4C/	.	4c/	.	4e/	.	.	4ee\)	.
4r	.	4r	.	4r	.	.	8r	.
.	.	.	.	.	.	.	16r	.
.	.	.	.	.	.	.	16aa\	.
=7	=7	=7	=7	=7	=7	=7	=7	=7
!	!	!	!	!	!	!	!LO:TUP:a:problem:klamra łukowa	!
8C/L	.	4r	.	4r	.	2.ryy	24gg\LL	.
.	.	.	.	.	.	.	24ccc\	.
.	.	.	.	.	.	.	24bb\	.
8F/J	.	.	.	.	.	.	24aa\	.
.	.	.	.	.	.	.	24gg\	.
.	.	.	.	.	.	.	24ff\JJ	.
!	!	!	!	!	!	!	!LO:LB:g=original	!
4G\	.	4cc\	.	4ee\	.	.	4ee\	.
4GG/	.	4g/	.	4dd\	.	.	16gg\LL	.
.	.	.	.	.	.	.	16ff\	.
.	.	.	.	.	.	.	16ee\	.
.	.	.	.	.	.	.	16dd\JJ	.
=8!|:	=8!|:	=8!|:	=8!|:	=8!|:	=8!|:	=8!|:	=8!|:	=8!|:
*>B	*	*>B	*	*>B	*	*>B	*>B	*
*M4/4	*	*M4/4	*	*M4/4	*	*M4/4	*M4/4	*
*met(c)	*	*met(c)	*	*met(c)	*	*met(c)	*met(c)	*
!LO:TX:a:Bi:t=all(egro)	!	!LO:TX:a:Bi:t=all(egro)	!	!LO:TX:a:Bi:t=all(egro)	!	!	!LO:TX:a:Bi:t=allo	!
4C/	.	4c/	.	4cc\	.	1ryy	4cc\	.
4GG/	.	4G/	.	4g\	.	.	4g/	.
4C/	.	4c/	.	4cc\	.	.	4cc\	.
4E/	.	4e/	.	4ee\	.	.	4ee\	.
=9	=9	=9	=9	=9	=9	=9	=9	=9
8C/L	.	8c/L	.	8cc\L	.	1ryy	8cc\L	.
8GG/	.	8G/J	.	8g\J	.	.	8g\J	.
8C/	.	8c/L	.	8cc\L	.	.	8cc\L	.
8E/J	.	8e/J	.	8ee\J	.	.	8ee\J	.
4C/	.	4c/	.	4cc\	.	.	4cc\	.
4r	.	4r	.	4r	.	.	4r	.
!LO:LB:g=original	!	!	!	!	!	!	!	!
=10	=10	=10	=10	=10	=10	=10	=10	=10
!LO:TX:t=P:problem:mixed beam	!	!	!	!	!	!	!	!
8GG/L	.	4g/	.	4dd\	.	1ryy	8dd\L	.
8G\	.	.	.	.	.	.	8dd\J	.
8G\	.	4g/	.	4dd\	.	.	8b\L	.
8G\J	.	.	.	.	.	.	8b\J	.
!LO:TX:t=P:problem:mixed beam	!	!	!	!	!	!	!	!
8GG/L	.	4g/	.	4dd\	.	.	8dd\L	.
8G\	.	.	.	.	.	.	8dd\J	.
!	!	!	!	!LO:TX:a:t=P:w źródle przed łamaniem systemu plamy[za kreską taktową]:problem	!	!	!	!
8G\	.	4g/	.	4dd\	.	.	8ff\L	.
8G\J	.	.	.	.	.	.	8ff\J	.
!	!	!	!	!LO:LB:g=original	!	!	!	!
=11	=11	=11	=11	=11	=11	=11	=11	=11
!LO:TX:t=P:problem:mixed beam	!	!	!	!	!	!	!	!
8GG/L	.	8g/L	.	8dd\L	.	1ryy	8dd\L	.
8G\	.	16g/L	.	16dd\L	.	.	8b\J	.
.	.	16g/JJ	.	16dd\JJ	.	.	.	.
8G\	.	8g/L	.	8dd\L	.	.	8dd\L	.
8G\J	.	8g/J	.	8dd\J	.	.	8ff\J	.
4G\	.	4g/	.	4dd\	.	.	4dd\	.
4r	.	4r	.	4r	.	.	4r	.
!	!	!LO:LB:g=original	!	!	!	!	!	!
=12	=12	=12	=12	=12	=12	=12	=12	=12
8C\L	.	4e/	.	4cc\	.	1ryy	(>8ee\L	.
8E\J	.	.	.	.	.	.	8gg\J)	.
8G\L	.	4r	.	4r	.	.	8gg'>\L	.
8c\J	.	.	.	.	.	.	8gg'>\J	.
8e\L	.	4cc\	.	4ee\	.	.	(>8gg\L	.
8c\J	.	.	.	.	.	.	8ccc\J)	.
8c\L	.	4ryy	.	4r	.	.	8gg'>\L	.
8c\J	.	.	.	.	.	.	8ee'>\J	.
=13	=13	=13	=13	=13	=13	=13	=13	=13
4B\	.	4dd\	.	4ff\	.	1ryy	(>8ff\L	.
.	.	.	.	.	.	.	8aa\J)	.
4G\	.	4g\	.	4dd\	.	.	8ff'>\L	.
.	.	.	.	.	.	.	8dd'>\J	.
4c\	.	4cc\	.	4ee\	.	.	(>8ee\L	.
.	.	.	.	.	.	.	8gg\J)	.
4E\	.	4e/	.	4cc\	.	.	8ee'>\L	.
.	.	.	.	.	.	.	8cc'>\J	.
=14	=14	=14	=14	=14	=14	=14	=14	=14
4F\	.	4g/	.	4dd\	.	1ryy	(>8dd\L	.
.	.	.	.	.	.	.	8ff\J)	.
4G\	.	4g/	.	4dd\	.	.	8dd'>\L	.
.	.	.	.	.	.	.	8b'>\J	.
!	!	!	!	!	!	!	!LO:LB:g=original	!
4C/	.	4e/	.	4cc\	.	.	16cc\LL	.
.	.	.	.	.	.	.	(>16b\	.
.	.	.	.	.	.	.	16cc\)	.
.	.	.	.	.	.	.	16dd\JJ	.
4r	.	4r	.	4r	.	.	16ee\LL	.
.	.	.	.	.	.	.	(>16dd\	.
.	.	.	.	.	.	.	16ee\	.
.	.	.	.	.	.	.	16ff\JJ)	.
=15	=15	=15	=15	=15	=15	=15	=15	=15
!	!	!	!	!	!LO:DY:a:t=%s	!	!	!LO:DY:a:t=%s:rj
8C\L	.	2r	.	2r	p	1ryy	(>8ee\L	p
8E\J	.	.	.	.	.	.	8gg\)	.
8G\L	.	.	.	.	.	.	8gg'>\	.
8E\J	.	.	.	.	.	.	8gg'>\J	.
8C\L	.	4cc\	.	4ee\	.	.	(>8gg\L	.
8E\J	.	.	.	.	.	.	8ccc\J)	.
8G\L	.	4r	.	4r	.	.	8gg'>\L	.
8c\J	.	.	.	.	.	.	8ee'>\J	.
=16	=16	=16	=16	=16	=16	=16	=16	=16
!	!	!	!	!	!LO:DY:a:t=%s:rj	!	!	!
8B\L	.	8dd\L	.	8ff\L	p	1ryy	(>8ff\L	.
8B\J	.	8dd\J	.	8ff\J	.	.	8aa\J)	.
8G\L	.	8g/L	.	8dd\L	.	.	8ff'>\L	.
8G\J	.	8g/J	.	8dd\J	.	.	8dd'>\J	.
8c\L	.	8cc\L	.	8ee\L	.	.	(>8ee\L	.
8c\J	.	8cc\J	.	8ee\J	.	.	8gg\J)	.
8E\L	.	8e/L	.	8cc\L	.	.	8ee'>\L	.
8E\J	.	8e/J	.	8cc\J	.	.	8cc'>\J	.
=17	=17	=17	=17	=17	=17	=17	=17	=17
8F\L	.	8g/L	.	8dd\L	.	1ryy	16dd\LL	.
.	.	.	.	.	.	.	16ee\	.
8F\J	.	8g/	.	8dd\	.	.	16ff\	.
.	.	.	.	.	.	.	16ee\JJ	.
8G\L	.	8g/	.	8dd\	.	.	16ff\LL	.
.	.	.	.	.	.	.	16dd\	.
8G\J	.	8g/J	.	8dd\J	.	.	16cc\	.
.	.	.	.	.	.	.	16b\JJ	.
!LO:LB:g=original	!	!	!	!	!	!	!	!
!	!	!	!	!	!LO:DY:a:t=%sor	!	!	!
8C\L	.	8e/L	.	8cc\L	f	.	4cc\	.
16D\L	.	16e/L	.	16cc\L	.	.	.	.
16E\JJ	.	16e/JJ	.	16cc\JJ	.	.	.	.
16F\LL	.	8e/L	.	8cc\L	.	.	4r	.
16G\	.	.	.	.	.	.	.	.
16A\	.	8e/J	.	8cc\J	.	.	.	.
16B\JJ	.	.	.	.	.	.	.	.
=18	=18	=18	=18	=18	=18	=18	=18	=18
!	!	!	!	!	!	!	!	!LO:DY:a:rj
4c\	.	4e/	.	4cc\	.	1ryy	16gg\LL	f
.	.	.	.	.	.	.	16ff\	.
.	.	.	.	.	.	.	16ee\	.
.	.	.	.	.	.	.	16ff\JJ	.
4r	.	4r	.	4r	.	.	16gg\LL	.
.	.	.	.	.	.	.	16aa\	.
.	.	.	.	.	.	.	16bb\	.
.	.	.	.	.	.	.	16ccc\JJ	.
8C\L	.	8e/L	.	8cc\L	.	.	4gg\	.
16D\L	.	16e/L	.	16cc\L	.	.	.	.
16E\JJ	.	16e/JJ	.	16cc\JJ	.	.	.	.
16F\LL	.	8e/L	.	8cc\L	.	.	4r	.
16G\	.	.	.	.	.	.	.	.
16A\	.	8e/J	.	8cc\J	.	.	.	.
16B\JJ	.	.	.	.	.	.	.	.
=19	=19	=19	=19	=19	=19	=19	=19	=19
4c\	.	4e/	.	4cc\	.	1ryy	16gg\LL	.
.	.	.	.	.	.	.	16ff\	.
.	.	.	.	.	.	.	16ee\	.
.	.	.	.	.	.	.	16ff\JJ	.
4r	.	4r	.	4r	.	.	16gg\LL	.
.	.	.	.	.	.	.	16ff\	.
.	.	.	.	.	.	.	16ee\	.
.	.	.	.	.	.	.	16ff\JJ	.
8r	.	8r	.	8r	.	.	8ee\L	.
8C/L	.	8c/L	.	8cc\L	.	.	8cc\	.
8C/	.	8c/	.	8cc\	.	.	8cc\	.
8C/J	.	8c/J	.	8cc\J	.	.	8cc\J	.
!	!	!LO:LB:g=original	!	!LO:LB:g=original	!	!	!LO:LB:g=original	!
=20	=20	=20	=20	=20	=20	=20	=20	=20
8C/L	.	4c/	.	4cc\	.	1ryy	8cc\L	.
16D/L	.	.	.	.	.	.	16dd\L	.
16E/JJ	.	.	.	.	.	.	16ee\JJ	.
16F\LL	.	4r	.	4r	.	.	16ff\LL	.
16G\	.	.	.	.	.	.	16gg\	.
16A\	.	.	.	.	.	.	16aa\	.
16B\JJ	.	.	.	.	.	.	16bb\JJ	.
16c\LL	.	8c/L	.	8cc\L	.	.	16ccc\LL	.
16B\	.	.	.	.	.	.	16bb\	.
!	!	!LO:SIC:v:s=8a/	!	!LO:SIC:v:s=8aa\	!	!	!	!
16A\	.	8g/	.	8gg\	.	.	16aa\	.
16G\JJ	.	.	.	.	.	.	16gg\JJ	.
!	!	!LO:SIC:v:s=8f/	!	!LO:SIC:v:s=8ff\	!	!	!	!
16F\LL	.	8e/	.	8ee\	.	.	16ff\LL	.
16E\	.	.	.	.	.	.	16ee\	.
!	!	!LO:SIC:v:s=8d/J	!	!LO:SIC:v:s=8dd\J	!	!	!	!
16D\	.	8c/J	.	8cc\J	.	.	16dd\	.
16C\JJ	.	.	.	.	.	.	16cc\JJ	.
=21	=21	=21	=21	=21	=21	=21	=21	=21
!LO:TX:t=P:problem:mixed beam	!	!	!	!	!	!	!	!
8G\L	.	8g/L	.	8dd\L	.	1ryy	8gg\L	.
8GG/	.	16g/L	.	16dd\L	.	.	16gg\L	.
.	.	16g/JJ	.	16dd\JJ	.	.	16bb\JJ	.
8BB/	.	8g/L	.	8dd\L	.	.	8gg\L	.
8D/J	.	8g/J	.	16dd\L	.	.	16gg\L	.
.	.	.	.	16dd\JJ	.	.	16bb\JJ	.
4G\	.	4g/	.	4dd\	.	.	4gg\	.
4r	.	4r	.	4r	.	.	4r	.
=22	=22	=22	=22	=22	=22	=22	=22	=22
!	!LO:DY:a:t=%s	!	!LO:DY:a:t=%s	!	!LO:DY:a:t=%s:rj	!	!	!
4GG/	p	4G/	f	4g/	f	1ryy	8dd\L	.
.	.	.	.	.	.	.	8gg\J	.
4G\	.	4r	.	4r	.	.	4ggM>\	.
4G\	.	2r	.	2r	.	.	8bb'>\L	.
.	.	.	.	.	.	.	(>8gg\	.
4r	.	.	.	.	.	.	8ff#X\	.
.	.	.	.	.	.	.	8ee\J)	.
=23	=23	=23	=23	=23	=23	=23	=23	=23
!	!	!	!	!	!	!	!LO:TX:a:Bi:t=dolce	!
!	!	!	!	!	!LO:DY:a:t=%s	!	!	!
4r	.	4r	.	4r	p	1ryy	8dd\L	.
.	.	.	.	.	.	.	8cc\J	.
!	!	!	!LO:DY:a:t=%s.:rj	!	!	!	!	!
2F#X\	.	2dd\	p	2dd\	.	.	2cc\	.
4G\	.	4g/	.	4dd\	.	.	4b\	.
!LO:LB:g=original	!	!	!	!	!	!	!	!
=24	=24	=24	=24	=24	=24	=24	=24	=24
*	*	*	*	*	*	*	*Xtuplet	*
4C/	.	4c/	.	4cc\	.	1ryy	12a\L	.
.	.	.	.	.	.	.	12cc\	.
.	.	.	.	.	.	.	12b\J	.
4r	.	4r	.	4r	.	.	12a\L	.
.	.	.	.	.	.	.	12b\	.
.	.	.	.	.	.	.	12cc\J	.
4C/	.	4c/	.	4cc\	.	.	12ee\L	.
.	.	.	.	.	.	.	12dd\	.
.	.	.	.	.	.	.	12cc\J	.
4C#X/	.	4r	.	4r	.	.	12b/L	.
.	.	.	.	.	.	.	12a/	.
.	.	.	.	.	.	.	12g/J	.
*	*	*	*	*	*	*	*tuplet	*
!	!	!	!	!	!	!	!LO:LB:g=original	!
=25	=25	=25	=25	=25	=25	=25	=25	=25
!	!	!	!	!	!	!	!	!LO:DY:a:rj
8D\L	.	8dd\L	.	8dd\L	.	1ryy	16f#X/LL	f
.	.	.	.	.	.	.	16d/	.
16E\L	.	8dd\J	.	8dd\J	.	.	16e/	.
16F#X\JJ	.	.	.	.	.	.	16f#/JJ	.
16G\LL	.	8dd\L	.	8dd\L	.	.	16g/LL	.
16A\	.	.	.	.	.	.	16a/	.
16B\	.	8dd\J	.	8dd\J	.	.	16b/	.
16c#X\JJ	.	.	.	.	.	.	16cc#X/JJ	.
4d\	.	4dd\	.	4dd\	.	.	4dd\	.
4r	.	4r	.	4r	.	.	4r	.
=26	=26	=26	=26	=26	=26	=26	=26	=26
!LO:TX:a:t=P:znak początku repetycji:problem	!	!	!	!	!	!	!	!
!	!	!	!	!	!	!	!	!LO:DY:a:rj
4r	.	4r	.	4r	.	1ryy	(>16a\LL	p
.	.	.	.	.	.	.	16cc\)	.
.	.	.	.	.	.	.	(>16b\	.
.	.	.	.	.	.	.	16dd\JJ)	.
8D\L	.	2dd\	.	2dd\	.	.	2cc\	.
8E\J	.	.	.	.	.	.	.	.
4F#X\	.	.	.	.	.	.	.	.
4G\	.	4dd\	.	4dd\	.	.	4b\	.
=27	=27	=27	=27	=27	=27	=27	=27	=27
8D\L	.	8dd\L	.	8dd\L	.	1ryy	8a\L	.
8D\J	.	8dd\J	.	8dd\J	.	.	8cc\J	.
8D\L	.	8dd\L	.	8dd\L	.	.	8ff#X\L	.
8D\J	.	8dd\J	.	8dd\J	.	.	8aa\J	.
4D\	.	4dd\	.	4dd\	.	.	4ccc\	.
4r	.	4r	.	4r	.	.	4r	.
!LO:TX:a:t=P:znak końca repetycji:problem	!	!	!	!	!	!	!	!
=28	=28	=28	=28	=28	=28	=28	=28	=28
*rep	*	*	*	*	*	*	*	*
!LO:TX:a:t=P:powtórzenie taktów oznaczone znakami repetycji:problem	!	!	!	!	!	!	!	!
4ryy	.	4r	.	4r	.	1ryy	(>16a\LL	.
.	.	.	.	.	.	.	16cc\)	.
.	.	.	.	.	.	.	(>16b\	.
.	.	.	.	.	.	.	16dd\JJ)	.
8D\Lyy	.	2dd\	.	2dd\	.	.	2cc\	.
8E\Jyy	.	.	.	.	.	.	.	.
4F#X\yy	.	.	.	.	.	.	.	.
4G\yy	.	4dd\	.	4dd\	.	.	4b\	.
!	!	!LO:LB:g=original	!	!	!	!	!	!
=29	=29	=29	=29	=29	=29	=29	=29	=29
8D\Lyy	.	8dd\L	.	8dd\L	.	1ryy	8a\L	.
8D\Jyy	.	8dd\J	.	8dd\J	.	.	8dd\	.
8D\Lyy	.	8dd\L	.	8dd\L	.	.	8dd\	.
8D\Jyy	.	8dd\J	.	8dd\J	.	.	8dd\J	.
4D\yy	.	4dd\	.	4dd\	.	.	4dd\	.
4ryy	.	4r	.	4r	.	.	4r	.
*Xrep	*	*	*	*	*	*	*	*
!	!	!	!	!LO:LB:g=original	!	!	!	!
=30	=30	=30	=30	=30	=30	=30	=30	=30
*	*	*	*	*	*	*	*Xtuplet	*
!LO:TX:t=P:problem:mixed beam	!	!	!	!	!	!	!	!
!	!LO:DY:a:t=%s:rj	!	!LO:DY:a:rj	!	!LO:DY:a:rj	!	!	!LO:DY:a:t=%s:rj
8GG/L	f	4g/	f	4dd\	f	1ryy	12bb\L	f
.	.	.	.	.	.	.	12aa\	.
8G\	.	.	.	.	.	.	.	.
.	.	.	.	.	.	.	12gg\J	.
8G\	.	4r	.	4r	.	.	12gg\L	.
.	.	.	.	.	.	.	12ff#X\	.
8G\J	.	.	.	.	.	.	.	.
.	.	.	.	.	.	.	12gg\J	.
!LO:TX:t=P:problem:mixed beam	!	!	!	!	!	!	!	!
8GG/L	.	4g/	.	4dd\	.	.	12bb\L	.
.	.	.	.	.	.	.	12aa\	.
8G\	.	.	.	.	.	.	.	.
.	.	.	.	.	.	.	12gg\J	.
8G\	.	4r	.	4r	.	.	12gg\L	.
.	.	.	.	.	.	.	12ff#\	.
8G\J	.	.	.	.	.	.	.	.
.	.	.	.	.	.	.	12gg\J	.
!	!	!	!	!	!	!	!LO:LB:g=original	!
=31	=31	=31	=31	=31	=31	=31	=31	=31
!LO:TX:t=P:problem:mixed beam	!	!	!	!	!	!	!	!
8DD/L	.	4dd\	.	4dd\	.	1ryy	12ff#X\L	.
.	.	.	.	.	.	.	12aa\	.
8D\	.	.	.	.	.	.	.	.
.	.	.	.	.	.	.	12gg\J	.
8D\	.	4r	.	4r	.	.	12ff#\L	.
.	.	.	.	.	.	.	12ee\	.
8D\J	.	.	.	.	.	.	.	.
.	.	.	.	.	.	.	12dd\J	.
!LO:TX:t=P:problem:mixed beam	!	!	!	!	!	!	!	!
8DD/L	.	2dd\	.	2dd\	.	.	12cc\L	.
.	.	.	.	.	.	.	12b\	.
8D\	.	.	.	.	.	.	.	.
.	.	.	.	.	.	.	12cc\J	.
8D\	.	.	.	.	.	.	12a/L	.
.	.	.	.	.	.	.	12g/	.
8D\J	.	.	.	.	.	.	.	.
.	.	.	.	.	.	.	12a/J	.
=32	=32	=32	=32	=32	=32	=32	=32	=32
!LO:TX:t=P:problem:mixed beam	!	!	!	!	!	!	!	!
8GG/L	.	4g/	.	4dd\	.	1ryy	12b\L	.
.	.	.	.	.	.	.	12cc\	.
8G\	.	.	.	.	.	.	.	.
.	.	.	.	.	.	.	12dd\J	.
8G\	.	4g/	.	4dd\	.	.	12ee\L	.
.	.	.	.	.	.	.	12ff#X\	.
8G\J	.	.	.	.	.	.	.	.
.	.	.	.	.	.	.	12gg\J	.
8F#X\L	.	4dd\	.	4dd\	.	.	4aa\	.
8F#\	.	.	.	.	.	.	.	.
8D\	.	4dd\	.	4dd\	.	.	4ccM>\	.
8D\J	.	.	.	.	.	.	.	.
*	*	*	*	*	*	*	*tuplet	*
=33	=33	=33	=33	=33	=33	=33	=33	=33
8G\L	.	4g/	.	4dd\	.	1ryy	16b\LL	.
.	.	.	.	.	.	.	16gg\	.
8G\J	.	.	.	.	.	.	16ff#X\	.
.	.	.	.	.	.	.	16gg\JJ	.
8C/L	.	4r	.	4r	.	.	16ff#\LL	.
.	.	.	.	.	.	.	16ee\	.
8C/J	.	.	.	.	.	.	16dd\	.
.	.	.	.	.	.	.	16cc\JJ	.
!LO:LB:g=original	!	!	!	!	!	!	!	!
8D/L	.	4g/	.	4dd\	.	.	4b\	.
8D/J	.	.	.	.	.	.	.	.
8DD/L	.	4dd\	.	4dd\	.	.	16dd\LL	.
.	.	.	.	.	.	.	16cc\	.
8DD/J	.	.	.	.	.	.	16b\	.
.	.	.	.	.	.	.	16a\JJ	.
=34	=34	=34	=34	=34	=34	=34	=34	=34
4GG/	.	4g/	.	4dd\	.	1ryy	4g/	.
8r	.	4r	.	4r	.	.	4r	.
16G\LL	.	.	.	.	.	.	.	.
16A\JJ	.	.	.	.	.	.	.	.
8B\L	.	2r	.	2r	.	.	2r	.
8B\	.	.	.	.	.	.	.	.
8B\	.	.	.	.	.	.	.	.
8c\J	.	.	.	.	.	.	.	.
=35	=35	=35	=35	=35	=35	=35	=35	=35
4B\	.	2r	.	2r	.	1ryy	4r	.
8r	.	.	.	.	.	.	8r	.
8G\	.	.	.	.	.	.	8bb\	.
8C\L	.	8dd\L	.	8dd\L	.	.	8ccc\L	.
8C\	.	8dd\	.	8dd\	.	.	8aa\	.
8D\	.	8dd\	.	8dd\	.	.	8gg\	.
8D\J	.	8dd\J	.	8dd\J	.	.	8ff#X\J	.
!	!	!	!	!	!	!	!LO:LB:g=original	!
=36	=36	=36	=36	=36	=36	=36	=36	=36
4G\	.	4g/	.	4dd\	.	1ryy	4gg\	.
8r	.	4r	.	4r	.	.	4r	.
16G\LL	.	.	.	.	.	.	.	.
16A\JJ	.	.	.	.	.	.	.	.
8B\L	.	2r	.	2r	.	.	2r	.
16B\L	.	.	.	.	.	.	.	.
16c\JJ	.	.	.	.	.	.	.	.
8B\L	.	.	.	.	.	.	.	.
16B\L	.	.	.	.	.	.	.	.
16d\JJ	.	.	.	.	.	.	.	.
=37	=37	=37	=37	=37	=37	=37	=37	=37
4B\	.	2r	.	2r	.	1ryy	4r	.
8r	.	.	.	.	.	.	8r	.
8G\	.	.	.	.	.	.	8bb\	.
*	*	*tremolo	*	*	*	*	*	*
8C\L	.	8dd\L	.	8dd\L	.	.	8ccc\L	.
8C\	.	8dd\	.	8dd\	.	.	8aa\	.
8D\	.	8dd\	.	8dd\	.	.	8gg\	.
8D\J	.	8dd\J	.	8dd\J	.	.	8ff#X\J	.
*	*	*Xtremolo	*	*	*	*	*	*
!	!	!LO:LB:g=original	!	!	!	!	!	!
=38	=38	=38	=38	=38	=38	=38	=38	=38
16G\LL	.	4g/	.	4dd\	.	1ryy	4gg\	.
16A\	.	.	.	.	.	.	.	.
16B\	.	.	.	.	.	.	.	.
16c\JJ	.	.	.	.	.	.	.	.
!LO:TX:t=P:problem:mixed beam	!	!	!	!	!	!	!	!
8d\L	.	8r	.	8r	.	.	8r	.
8D/J	.	8dd\	.	8dd\	.	.	8aa\	.
16G\LL	.	4g/	.	4dd\	.	.	4gg\	.
16A\	.	.	.	.	.	.	.	.
16B\	.	.	.	.	.	.	.	.
16c\JJ	.	.	.	.	.	.	.	.
!LO:TX:t=P:problem:mixed beam	!	!	!	!	!	!	!	!
8d\L	.	8r	.	8r	.	.	8r	.
8D/J	.	8dd\	.	8dd\	.	.	8aa\	.
=39	=39	=39	=39	=39	=39	=39	=39	=39
!LO:TX:t=P:problem:mixed beam	!	!	!	!	!	!	!	!
8GG/L	.	4g/	.	4dd\	.	1ryy	4gg\	.
8G\J	.	.	.	.	.	.	.	.
8D\L	.	4g/	.	4dd\	.	.	4gg\	.
8BB\J	.	.	.	.	.	.	.	.
4GG/	.	4g/	.	4dd\	.	.	4gg\	.
4r	.	4r	.	4r	.	.	4r	.
!LO:LB:g=original	!	!	!	!LO:LB:g=original	!	!	!	!
=40:|!|:	=40:|!|:	=40:|!|:	=40:|!|:	=40:|!|:	=40:|!|:	=40:|!|:	=40:|!|:	=40:|!|:
*>C	*	*>C	*	*>C	*	*>C	*>C	*
4G\	.	4dd\	.	4dd\	.	1ryy	4gg\	.
4D\	.	4dd\	.	4dd\	.	.	4dd\	.
4G\	.	4dd\	.	4dd\	.	.	4gg\	.
4B\	.	4dd\	.	4dd\	.	.	4bb\	.
=41	=41	=41	=41	=41	=41	=41	=41	=41
8G\L	.	4dd\	.	4dd\	.	1ryy	8gg\L	.
8D\J	.	.	.	.	.	.	8dd\J	.
8G\L	.	4dd\	.	4dd\	.	.	8gg\L	.
8B\J	.	.	.	.	.	.	8bb\J	.
4G\	.	4dd\	.	4dd\	.	.	4gg\	.
4r	.	4r	.	4r	.	.	4r	.
!	!	!	!	!	!	!	!LO:LB:g=original	!
=42	=42	=42	=42	=42	=42	=42	=42	=42
8D\L	.	4dd\	.	4dd\	.	1ryy	4aa\	.
8F#X\	.	.	.	.	.	.	.	.
8A\	.	4dd\	.	4dd\	.	.	4ff#X\	.
8F#\J	.	.	.	.	.	.	.	.
8D\L	.	4dd\	.	4dd\	.	.	4aa\	.
8F#\	.	.	.	.	.	.	.	.
8A\	.	4dd\	.	4dd\	.	.	4ccc\	.
8F#\J	.	.	.	.	.	.	.	.
=43	=43	=43	=43	=43	=43	=43	=43	=43
8D\L	.	4dd\	.	4dd\	.	1ryy	8aa\L	.
!LO:SIC:v:s=8F#\	!	!	!	!	!	!	!	!
!	!	!	!	!	!	!	!LO:SIC:v:s=8ff#\J	!
8F\	.	.	.	.	.	.	8ff\J	.
8A\	.	4dd\	.	4dd\	.	.	8aa\L	.
!LO:SIC:v:s=8F#\J	!	!	!	!	!	!	!	!
8F\J	.	.	.	.	.	.	8ccc\J	.
4D\	.	4dd\	.	4dd\	.	.	4aa\	.
4r	.	4r	.	4r	.	.	4r	.
=44	=44	=44	=44	=44	=44	=44	=44	=44
8GG/L	.	8dd\L	.	8dd\L	.	1ryy	(>8dd\L	.
16AA/L	.	8dd\	.	8dd\	.	.	8gg\)	.
16BB/JJ	.	.	.	.	.	.	.	.
16C/LL	.	8dd\	.	8dd\	.	.	8gg'>\	.
16D/	.	.	.	.	.	.	.	.
16E/	.	8dd\J	.	8dd\J	.	.	8gg'>\J	.
16F#X/JJ	.	.	.	.	.	.	.	.
8G/L	.	4dd\	.	4dd\	.	.	(>8gg\L	.
8D/J	.	.	.	.	.	.	8bb\J)	.
8BB/L	.	4r	.	4r	.	.	(>8gg\L	.
8GG/J	.	.	.	.	.	.	8bb\J)	.
=45	=45	=45	=45	=45	=45	=45	=45	=45
8C/L	.	2r	.	2r	.	1ryy	4.ccc\	.
8C/	.	.	.	.	.	.	.	.
8C/	.	.	.	.	.	.	.	.
8C/J	.	.	.	.	.	.	8aa\	.
8D/L	.	4dd\	.	4dd\	.	.	(>8gg\L	.
8D/	.	.	.	.	.	.	8ff#X\)	.
8D/	.	4dd\	.	4dd\	.	.	(>8ee\	.
8D/J	.	.	.	.	.	.	8dd\J)	.
=46	=46	=46	=46	=46	=46	=46	=46	=46
8GG/L	.	8dd\L	.	8dd\L	.	1ryy	(>8dd\L	.
16AA/L	.	8dd\	.	8dd\	.	.	8gg\)	.
16BB/JJ	.	.	.	.	.	.	.	.
16C/LL	.	8dd\	.	8dd\	.	.	8gg'>\	.
16D/	.	.	.	.	.	.	.	.
16E/	.	8dd\J	.	8dd\J	.	.	8gg'>\J	.
!LO:SIC:v:s=16F#/JJ	!	!	!	!	!	!	!	!
16F/JJ	.	.	.	.	.	.	.	.
8G/L	.	4dd\	.	4dd\	.	.	(>8gg\L	.
8D/J	.	.	.	.	.	.	8bb\J)	.
8BB/L	.	4r	.	4r	.	.	(>8gg\L	.
8GG/J	.	.	.	.	.	.	8bb\J)	.
!LO:LB:g=original	!	!	!	!	!	!	!	!
=47	=47	=47	=47	=47	=47	=47	=47	=47
*tremolo	*	*	*	*	*	*	*	*
8C/L	.	2r	.	2r	.	1ryy	4.ccc\	.
8C/	.	.	.	.	.	.	.	.
8C/	.	.	.	.	.	.	.	.
8C/J	.	.	.	.	.	.	8aa\	.
8D/L	.	4dd\	.	4dd\	.	.	8gg\L	.
8D/	.	.	.	.	.	.	8ff#X\	.
8D/	.	4dd\	.	4dd\	.	.	8ee\	.
8D/J	.	.	.	.	.	.	8dd\J	.
*Xtremolo	*	*	*	*	*	*	*	*
!	!	!LO:LB:g=original	!	!	!	!	!	!
=48	=48	=48	=48	=48	=48	=48	=48	=48
!LO:TX:t=P:problem:mixed beam	!	!	!	!	!	!	!	!
8GG/L	.	8g/L	.	8dd\L	.	1ryy	8gg\L	.
8G\J	.	8g/	.	8dd\	.	.	8gg\	.
!LO:TX:t=P:problem:mixed beam	!	!	!	!	!	!	!	!
8GG/L	.	8g/	.	8dd\	.	.	8gg\	.
8G\J	.	8g/J	.	8dd\J	.	.	8bb\J	.
8GG/L	.	4g/	.	4dd\	.	.	4gg\	.
16AA/L	.	.	.	.	.	.	.	.
16BB/JJ	.	.	.	.	.	.	.	.
16C/LL	.	4r	.	4r	.	.	4rff	.
16D/	.	.	.	.	.	.	.	.
16E/	.	.	.	.	.	.	.	.
16F#X/JJ	.	.	.	.	.	.	.	.
!	!	!	!	!	!	!	!LO:PB:g=original	!
=49	=49	=49	=49	=49	=49	=49	=49	=49
8G/L	.	8g/L	.	8g/L	.	1ryy	8gg\L	.
8F/	.	8g/	.	8g/	.	.	8gg\	.
8E/	.	8g/	.	8g/	.	.	8gg\	.
8D/J	.	8g/J	.	8g/J	.	.	8bb-X\J	.
4C#X;>/	.	4e/	.	4g/	.	.	4bb-\	.
4r	.	4r;>	.	4r;>	.	.	4r;>	.
!	!	!	!	!LO:LB:g=original	!	!	!	!
=50	=50	=50	=50	=50	=50	=50	=50	=50
8D\L	.	2dd\	.	2dd\	.	1ryy	4aa\	.
8d\J	.	.	.	.	.	.	.	.
8D\L	.	.	.	.	.	.	16ff\LL	.
.	.	.	.	.	.	.	16ee\	.
8d\J	.	.	.	.	.	.	16ff\	.
.	.	.	.	.	.	.	16gg\JJ	.
8D\L	.	2dd\	.	2dd\	.	.	16aa\LL	.
.	.	.	.	.	.	.	16gg\	.
8d\J	.	.	.	.	.	.	16aa\	.
.	.	.	.	.	.	.	16bb-X\JJ	.
8D\L	.	.	.	.	.	.	16aa\LL	.
.	.	.	.	.	.	.	16bb-\	.
8d\J	.	.	.	.	.	.	16aa\	.
.	.	.	.	.	.	.	16gg\JJ	.
=51	=51	=51	=51	=51	=51	=51	=51	=51
8D\L	.	4dd\	.	4dd\	.	1ryy	16ff\LL	.
.	.	.	.	.	.	.	16ee\	.
8d\J	.	.	.	.	.	.	16ff\	.
.	.	.	.	.	.	.	16gg\JJ	.
8D\L	.	4r	.	4r	.	.	16ff\LL	.
.	.	.	.	.	.	.	16ee\	.
8d\J	.	.	.	.	.	.	16ff\	.
.	.	.	.	.	.	.	16gg\JJ	.
16F\LL	.	4dd\	.	4dd\	.	.	16ff\LL	.
16E\	.	.	.	.	.	.	16ee\	.
16D\	.	.	.	.	.	.	16dd\	.
16C#X\JJ	.	.	.	.	.	.	16cc#X\JJ	.
16D\LL	.	4dd\	.	4dd\	.	.	16dd\LL	.
16E\	.	.	.	.	.	.	16ee\	.
16F\	.	.	.	.	.	.	16ff\	.
16G\JJ	.	.	.	.	.	.	16gg\JJ	.
=52	=52	=52	=52	=52	=52	=52	=52	=52
16F\LL	.	2dd\	.	2dd\	.	1ryy	16aa\LL	.
16E\	.	.	.	.	.	.	16gg\	.
16D\	.	.	.	.	.	.	16ff\	.
!LO:SIC:v:s=16C#\JJ	!	!	!	!	!	!	!	!
16C\JJ	.	.	.	.	.	.	16ee\JJ	.
16D\LL	.	.	.	.	.	.	16ff\LL	.
16E\	.	.	.	.	.	.	16ee\	.
16F\	.	.	.	.	.	.	16ff\	.
16G\JJ	.	.	.	.	.	.	16gg\JJ	.
16A\LL	.	2r	.	2r	.	.	16aa\LL	.
16G\	.	.	.	.	.	.	16gg\	.
16F\	.	.	.	.	.	.	16ff\	.
16E\JJ	.	.	.	.	.	.	16ee\JJ	.
16D/LL	.	.	.	.	.	.	16dd\LL	.
16C/	.	.	.	.	.	.	16cc\	.
16BB/	.	.	.	.	.	.	16bn\	.
16AA/JJ	.	.	.	.	.	.	16a\JJ	.
!LO:LB:g=original	!	!	!	!	!	!	!LO:LB:g=original	!
=53	=53	=53	=53	=53	=53	=53	=53	=53
8E\L	.	4ee\	.	4ee\	.	1ryy	8g#X/L	.
8E\J	.	.	.	.	.	.	8b/J	.
8G#X\L	.	4ee\	.	4ee\	.	.	4ee\	.
8G#\J	.	.	.	.	.	.	.	.
*tremolo	*	*	*	*	*	*	*	*
8E\L	.	2r	.	2r	.	.	8r	.
8E\	.	.	.	.	.	.	8gg#X\L	.
8E\	.	.	.	.	.	.	8gg#\	.
8E\J	.	.	.	.	.	.	8gg#\J	.
=54	=54	=54	=54	=54	=54	=54	=54	=54
!	!	!	!LO:DY:a:t=%s	!	!LO:DY:a:t=%s:rj	!	!	!
8A\L	.	1e	p	1ee	p	1ryy	(>8aa\L	.
8A\	.	.	.	.	.	.	8ee\J)	.
8A\	.	.	.	.	.	.	4ee\	.
8A\J	.	.	.	.	.	.	.	.
*Xtremolo	*	*	*	*	*	*	*	*
!LO:TX:t=P:problem:mixed beam	!	!	!	!	!	!	!	!
8AA/L	.	.	.	.	.	.	8r	.
!	!	!	!	!	!	!	!LO:TX:a:t=|:problem	!
8A\	.	.	.	.	.	.	8ee\L	.
8G#X\	.	.	.	.	.	.	(>8dd\	.
8A\J	.	.	.	.	.	.	8cc\J)	.
=55	=55	=55	=55	=55	=55	=55	=55	=55
*tremolo	*	*	*	*	*	*	*	*
8E\L	.	1e	.	1ee	.	1ryy	8b\L	.
8E\	.	.	.	.	.	.	16b\L	.
.	.	.	.	.	.	.	16cc\JJ	.
8E\	.	.	.	.	.	.	8b\L	.
8E\J	.	.	.	.	.	.	8b\J	.
8E\L	.	.	.	.	.	.	8b\L	.
8E\	.	.	.	.	.	.	8gg#X\	.
8E\	.	.	.	.	.	.	8gg#\	.
8E\J	.	.	.	.	.	.	8gg#\J	.
*Xtremolo	*	*	*	*	*	*	*	*
=56	=56	=56	=56	=56	=56	=56	=56	=56
!LO:TX:t=P:problem:mixed beam	!	!	!	!	!	!	!	!
8AA/L	.	1e	.	1ee	.	1ryy	8aa\L	.
8A\J	.	.	.	.	.	.	16gg\L	.
.	.	.	.	.	.	.	16ff\JJ	.
!LO:TX:t=P:problem:mixed beam	!	!	!	!	!	!	!	!
8AA/L	.	.	.	.	.	.	4ee\	.
8A\J	.	.	.	.	.	.	.	.
!LO:TX:t=P:problem:mixed beam	!	!	!	!	!	!	!	!
8AA/L	.	.	.	.	.	.	8r	.
8A\J	.	.	.	.	.	.	8ee\L	.
8G#X\L	.	.	.	.	.	.	8dd\	.
8A\J	.	.	.	.	.	.	8cc\J	.
=57	=57	=57	=57	=57	=57	=57	=57	=57
4E\	.	4e/	.	4ee\	.	1ryy	4b\	.
4E\	.	4e/	.	4ee\	.	.	4ee\	.
4E\	.	4e/	.	4ee\	.	.	4ee\	.
4r	.	4r	.	4r	.	.	4r	.
=58	=58	=58	=58	=58	=58	=58	=58	=58
!	!	!	!	!	!	!	!LO:TX:a:Bi:t=dol.:rj	!
4r	.	1r	.	1r	.	1ryy	1ff	.
4G#X\	.	.	.	.	.	.	.	.
4G#\	.	.	.	.	.	.	.	.
4G#\	.	.	.	.	.	.	.	.
=59	=59	=59	=59	=59	=59	=59	=59	=59
4r	.	4r	.	4r	.	1ryy	1gg#X	.
4B\	.	4e/	.	4ee\	.	.	.	.
4B\	.	4e/	.	4ee\	.	.	.	.
4B\	.	4e/	.	4ee\	.	.	.	.
=60	=60	=60	=60	=60	=60	=60	=60	=60
4A\	.	4e/	.	4ee\	.	1ryy	8aa\L	.
.	.	.	.	.	.	.	8ee\J	.
.	.	.	.	.	.	.	8qqgg/	.
4D\	.	4r	.	4r	.	.	8ff\L	.
.	.	.	.	.	.	.	(>16ee\L	.
.	.	.	.	.	.	.	16dd\JJ)	.
!	!	!	!	!	!	!	!LO:LB:g=original	!
4E\	.	4e/	.	4ee\	.	.	4cc\	.
4E\	.	4e/	.	4ee\	.	.	4b\	.
!	!	!LO:LB:g=original	!	!	!	!	!	!
=61	=61	=61	=61	=61	=61	=61	=61	=61
!LO:TX:a:t=P:problem:pominięty fragment	!	!	!	!	!	!	!	!
1ryy	.	2c/	.	2cc\	.	1ryy	2cc\	.
.	.	2r	.	2r	.	.	2r	.
=62	=62	=62	=62	=62	=62	=62	=62	=62
.	.	.	.	.	.	.	8qqee/	.
2F\	.	1r	.	1r	.	1ryy	1ff	.
2r	.	.	.	.	.	.	.	.
!	!	!	!	!LO:LB:g=original	!	!	!	!
=63	=63	=63	=63	=63	=63	=63	=63	=63
.	.	.	.	.	.	.	8qqff/	.
4r	.	4r	.	4r	.	1ryy	1gg#X	.
4G#X\	.	4e/	.	4ee\	.	.	.	.
4B\	.	4e/	.	4ee\	.	.	.	.
4G#\	.	4e/	.	4ee\	.	.	.	.
!LO:PB:g=original	!	!	!	!	!	!	!	!
=64	=64	=64	=64	=64	=64	=64	=64	=64
4A\	.	4e/	.	4ee\	.	1ryy	16aa\LL	.
.	.	.	.	.	.	.	16gg\	.
.	.	.	.	.	.	.	16aa\	.
.	.	.	.	.	.	.	16ee\JJ	.
4D\	.	4r	.	4r	.	.	16gg\LL	.
.	.	.	.	.	.	.	16ff\	.
.	.	.	.	.	.	.	16ee\	.
.	.	.	.	.	.	.	16dd\JJ	.
4E\	.	4e/	.	4ee\	.	.	4cc\	.
4E\	.	4e/	.	4ee\	.	.	4bm>\	.
=65	=65	=65	=65	=65	=65	=65	=65	=65
4AA/	.	4e/	.	4ee\	.	1ryy	4a/	.
4r	.	4r	.	4r	.	.	4a/	.
2r	.	2r	.	2r	.	.	4a/	.
.	.	.	.	.	.	.	4a/	.
=66	=66	=66	=66	=66	=66	=66	=66	=66
!	!LO:DY:a:t=%s	!	!	!	!	!	!	!
4GG/	f	2r	.	2r	.	1ryy	4b\	.
4G\	.	.	.	.	.	.	4b\	.
!	!	!	!LO:DY:a:t=%s:rj	!	!LO:DY:a:t=%s:rj	!	!	!
4G\	.	2g/	f	2dd\	f	.	8b\L	.
.	.	.	.	.	.	.	8ff\	.
4G\	.	.	.	.	.	.	8dd\	.
.	.	.	.	.	.	.	8b\J	.
=67	=67	=67	=67	=67	=67	=67	=67	=67
!	!	!	!	!	!	!	!	!LO:DY:a
4C/	.	4c/	.	4cc\	.	1ryy	4cc\	f
4GG/	.	4G/	.	4g\	.	.	4g\	.
4C/	.	4c/	.	4cc\	.	.	4cc\	.
4E/	.	4e/	.	4ee\	.	.	4ee\	.
=68	=68	=68	=68	=68	=68	=68	=68	=68
8C/L	.	8c/L	.	8cc\L	.	1ryy	8cc\L	.
8GG/J	.	8G/J	.	8g\J	.	.	8g\J	.
8C/L	.	8c/L	.	8cc\L	.	.	8cc\L	.
8E/J	.	8e/J	.	8ee\J	.	.	8ee\J	.
4C/	.	4c/	.	4cc\	.	.	4cc\	.
4r	.	4r	.	4r	.	.	4r	.
!	!	!	!	!	!	!	!LO:LB:g=original	!
=69	=69	=69	=69	=69	=69	=69	=69	=69
8GG/L	.	4g/	.	4dd\	.	1ryy	8dd\L	.
8BB/	.	.	.	.	.	.	8dd\J	.
8D/	.	8g/L	.	8dd\L	.	.	8b\L	.
8BB/J	.	8g/J	.	8dd\J	.	.	8b\J	.
8GG/L	.	4g/	.	4dd\	.	.	8dd\L	.
8BB/	.	.	.	.	.	.	8dd\J	.
8D/	.	8g/L	.	8dd\L	.	.	8ff\L	.
8BB/J	.	8g/J	.	8dd\J	.	.	8ff\J	.
=70	=70	=70	=70	=70	=70	=70	=70	=70
8GG/L	.	8g/L	.	8dd\L	.	1ryy	8dd\L	.
8BB/J	.	8g/	.	8dd\	.	.	8b\J	.
8D\L	.	8g/	.	8dd\	.	.	8dd\L	.
8G\J	.	8g/J	.	8dd\J	.	.	8ff\J	.
4GG/	.	4g/	.	4dd\	.	.	4dd\	.
4r	.	4r	.	4r	.	.	4r	.
=71	=71	=71	=71	=71	=71	=71	=71	=71
8C\L	.	2e/	.	2cc\	.	1ryy	4.ee\	.
8E\	.	.	.	.	.	.	.	.
8C\	.	.	.	.	.	.	.	.
8E\J	.	.	.	.	.	.	8gg\	.
!LO:TX:t=P:problem:mixed beam	!	!	!	!	!	!	!	!
8G\L	.	2g/	.	2dd\	.	.	8ff\L	.
8GG/	.	.	.	.	.	.	8dd\	.
8GG/	.	.	.	.	.	.	8cc\	.
8GG/J	.	.	.	.	.	.	8b\J	.
!	!	!LO:LB:g=original	!	!	!	!	!	!
=72	=72	=72	=72	=72	=72	=72	=72	=72
4C/	.	4e/	.	4cc\	.	1ryy	8cc\L	.
.	.	.	.	.	.	.	8dd\	.
4r	.	4r	.	4r	.	.	8ee\	.
.	.	.	.	.	.	.	8ff\J	.
2r	.	2r	.	2r	.	.	8gg\L	.
.	.	.	.	.	.	.	8aa\	.
.	.	.	.	.	.	.	8bb\	.
.	.	.	.	.	.	.	8ccc\J	.
=73	=73	=73	=73	=73	=73	=73	=73	=73
!LO:TX:t=P:problem:mixed beam	!	!	!	!	!	!	!	!
8FF/L	.	4r	.	4r	.	1ryy	8r	.
8F\	.	.	.	.	.	.	8ddM>\L	.
8F\	.	4dd\	.	4ff\	.	.	8ff\	.
8F\J	.	.	.	.	.	.	8dd\J	.
8G\L	.	4cc\	.	4ee\	.	.	4cc\	.
8G\J	.	.	.	.	.	.	.	.
8GG/L	.	4g/	.	4dd\	.	.	4bm>\	.
8GG/J	.	.	.	.	.	.	.	.
=74	=74	=74	=74	=74	=74	=74	=74	=74
4C/	.	4e/	.	4cc\	.	1ryy	8cc\L	.
.	.	.	.	.	.	.	8ddM>\J	.
4r	.	4r	.	4r	.	.	8ee\L	.
.	.	.	.	.	.	.	8ffM>\J	.
2r	.	2r	.	2r	.	.	8gg\L	.
.	.	.	.	.	.	.	8aaM>\J	.
.	.	.	.	.	.	.	8bb\L	.
.	.	.	.	.	.	.	8ccc\J	.
!LO:LB:g=original	!	!	!	!LO:LB:g=original	!	!	!LO:LB:g=original	!
=75	=75	=75	=75	=75	=75	=75	=75	=75
*	*	*	*	*	*	*	*Xtuplet	*
!LO:TX:t=P:problem:mixed beam	!	!	!	!	!	!	!	!
8FF/L	.	4r	.	4r	.	1ryy	12aa\L	.
.	.	.	.	.	.	.	12ccc\	.
8F\	.	.	.	.	.	.	.	.
.	.	.	.	.	.	.	12bb\J	.
8F\	.	4dd\	.	4ff\	.	.	12aa\L	.
.	.	.	.	.	.	.	12gg\	.
8F\J	.	.	.	.	.	.	.	.
.	.	.	.	.	.	.	12ff\J	.
8G\L	.	4cc\	.	4ee\	.	.	4ee\	.
8G\J	.	.	.	.	.	.	.	.
8GG/L	.	4g/	.	4dd\	.	.	4ddM>\	.
8GG/J	.	.	.	.	.	.	.	.
*	*	*	*	*	*	*	*tuplet	*
=76	=76	=76	=76	=76	=76	=76	=76	=76
4C/	.	4e/	.	4cc\	.	1ryy	4cc\	.
8r	.	4r	.	4r	.	.	4r	.
16E\LL	.	.	.	.	.	.	.	.
16F\JJ	.	.	.	.	.	.	.	.
8G\L	.	2r	.	2r	.	.	2r	.
8G\	.	.	.	.	.	.	.	.
8G\	.	.	.	.	.	.	.	.
8A\J	.	.	.	.	.	.	.	.
=77	=77	=77	=77	=77	=77	=77	=77	=77
4G\	.	2r	.	2r	.	1ryy	4r	.
8r	.	.	.	.	.	.	8r	.
8C/	.	.	.	.	.	.	8ee\	.
4F\	.	4g/	.	4dd\	.	.	8ff\L	.
.	.	.	.	.	.	.	8dd\	.
4G\	.	4g/	.	4dd\	.	.	8cc\	.
.	.	.	.	.	.	.	8b\J	.
=78	=78	=78	=78	=78	=78	=78	=78	=78
4C/	.	4e/	.	4cc\	.	1ryy	4cc\	.
8r	.	4r	.	4r	.	.	4r	.
16E\LL	.	.	.	.	.	.	.	.
16F\JJ	.	.	.	.	.	.	.	.
8G\L	.	2r	.	2r	.	.	2r	.
16G\L	.	.	.	.	.	.	.	.
16A\JJ	.	.	.	.	.	.	.	.
8G\L	.	.	.	.	.	.	.	.
16G\L	.	.	.	.	.	.	.	.
16A\JJ	.	.	.	.	.	.	.	.
=79	=79	=79	=79	=79	=79	=79	=79	=79
4G\	.	2r	.	2r	.	1ryy	4r	.
8r	.	.	.	.	.	.	8r	.
8C/	.	.	.	.	.	.	8gg\	.
8F\L	.	4g/	.	4dd\	.	.	8aa\L	.
8F\J	.	.	.	.	.	.	8ff\	.
8G\L	.	4g/	.	4dd\	.	.	8ee\	.
8G\J	.	.	.	.	.	.	8dd\J	.
=80	=80	=80	=80	=80	=80	=80	=80	=80
*	*	*Xtuplet	*	*Xtuplet	*	*	*	*
8C\L	.	12cc\L	.	12ee\L	.	1ryy	4ee\	.
.	.	12cc\	.	12ee\	.	.	.	.
8E\J	.	.	.	.	.	.	.	.
.	.	12cc\J	.	12ee\J	.	.	.	.
!LO:TX:t=P:problem:mixed beam	!	!	!	!	!	!	!	!
8G\L	.	12g/L	.	12dd\L	.	.	8r	.
.	.	12g/	.	12dd\	.	.	.	.
8GG/J	.	.	.	.	.	.	8dd\	.
.	.	12g/J	.	12dd\J	.	.	.	.
8C\L	.	12e/L	.	12cc\L	.	.	4cc\	.
.	.	12e/	.	12cc\	.	.	.	.
8E\J	.	.	.	.	.	.	.	.
.	.	12e/J	.	12cc\J	.	.	.	.
!LO:TX:t=P:problem:mixed beam	!	!	!	!	!	!	!	!
8G\L	.	12g/L	.	12dd\L	.	.	8r	.
.	.	12g/	.	12dd\	.	.	.	.
8GG/J	.	.	.	.	.	.	8dd\	.
.	.	12g/J	.	12dd\J	.	.	.	.
*	*	*tuplet	*	*tuplet	*	*	*	*
!	!	!	!	!	!	!	!LO:LB:g=original	!
=81	=81	=81	=81	=81	=81	=81	=81	=81
4C/	.	4c/	.	4cc\	.	1ryy	4ee\	.
4C/	.	4c/	.	4cc\	.	.	4ccc\	.
4C/	.	4c/	.	4cc\	.	.	4ccc\	.
!	!	!	!	!	!	!	!LO:TX:b:Bi:t=Seque Andante V	!
4r	.	4r	.	4r	.	.	4r	.
!	!	!	!	!LO:TX:a:t=P:w źródle ozdobna kreska końcowa [z repetycją]:problem	!	!	!	!
==:|!	==:|!	==:|!	==:|!	==:|!	==:|!	==:|!	==:|!	==:|!
*-	*-	*-	*-	*-	*-	*-	*-	*-
!!title: @{OTL};
!!!RDF**kern: > = above
!!!RDF**kern: < = below
!!!RDF**dynam: f = "fo", fontstyle= "bold-italic"
!!!RDF**dynam: p = "p:", fontstyle= "bold-italic"
!!!ENC: Andrzej Borzym
!!!END: 2021-01-03
!!!EED: Wojciech Jakubiak-Danek
!!!EST: 2021-01-20
!!!URL-scan: http://bc.bdsandomierz.pl/dlibra/publication/1776/edition/1744/content
!!!ONB-nifc: UWAGA: części Parthii: 1. Adagio, 2. Andante moderato, 3. Allegro molto
